source/img/header-mobile-logo-icon.svg

<svg width="190" height="38" viewBox="0 0 190 38" fill="none" xmlns="http://www.w3.org/2000/svg">
<g clip-path="url(#clip0_44334_308)">
<path d="M6.07 20.72V18.46C12.7536 17.5423 19.4937 17.0979 26.24 17.13C26.24 17.73 26.24 18.34 26.18 18.95C28.0976 18.099 30.1128 17.4877 32.18 17.13C30.8625 13.722 28.4618 10.8412 25.3471 8.93087C22.2324 7.02052 18.5764 6.1864 14.9414 6.55683C11.3064 6.92727 7.89379 8.48172 5.22852 10.9811C2.56325 13.4804 0.792969 16.7863 0.190001 20.39L6.07 20.72Z" fill="#FDC305"/>
<path d="M27.24 24.23C26.08 25.51 25.85 25.43 25.85 27.68C25.85 28.59 25.85 32.58 25.85 36.86C28.1425 35.346 30.0245 33.2879 31.328 30.8694C32.6315 28.4509 33.3158 25.7474 33.32 23C33.3068 21.9591 33.1997 20.9216 33 19.9C30.9282 21.1295 28.9967 22.5814 27.24 24.23Z" fill="#FDC305"/>
<path d="M6.36 25.72C6.36 25.72 2.57 24.28 1.17 23.89C0.787067 23.7693 0.396097 23.6757 0 23.61C0.108395 26.496 0.965588 29.3041 2.48739 31.7586C4.00919 34.2131 6.14326 36.2296 8.68 37.61L6.36 25.72Z" fill="#FDC305"/>
<path d="M26.29 17.12C26.3307 11.5986 25.862 6.08528 24.89 0.65C24.89 0.65 24.75 -0.64 24 0.41C23.4109 1.65814 23.0067 2.98539 22.8 4.35C18.5418 4.07577 14.2675 4.18957 10.03 4.69C9.24 2 7.85 0.75 7.18 1C6.51 1.25 6.46 4.31 6.46 4.31L6.13 18.41C12.8113 17.506 19.548 17.0749 26.29 17.12Z" fill="#F06351"/>
<path d="M12.41 14C12.41 13.91 13.41 14.68 13.82 14.92C14.23 15.16 14.43 15.34 14.43 15.51C14.43 15.68 14.16 15.85 13.8 15.85C13.44 15.85 12.89 15.73 12.8 15.58H13.74H14.03C13.4207 15.1294 12.8757 14.5978 12.41 14Z" fill="black"/>
<path d="M19.89 14.11L18.8 15.44C18.8 15.5 18.63 15.79 18.98 15.74C19.3942 15.6783 19.8023 15.5812 20.2 15.45C20.31 15.45 20.27 15.26 20.09 15.28C19.91 15.3 19.4 15.33 19.09 15.39L19.93 14.13C19.93 14.13 20 14 19.89 14.11Z" fill="black"/>
<path d="M16.75 20.2C17.2135 19.9958 17.5967 19.6443 17.84 19.2C18.12 18.55 17.84 18.29 17.4 18.2C16.7979 18.0902 16.1765 18.2116 15.66 18.54C15.27 18.9 15.32 19.26 15.61 19.54C15.9613 19.8062 16.3442 20.0279 16.75 20.2Z" fill="black"/>
<path d="M16.35 21.45C16.2379 21.6785 16.0816 21.8825 15.89 22.05C15.6052 22.2791 15.2551 22.4122 14.89 22.43C14.3638 22.472 13.8406 22.3189 13.42 22C13.2222 21.8808 13.0436 21.7324 12.89 21.56C12.7895 21.4491 12.6669 21.3605 12.53 21.3C12.53 21.3 13.28 25.4 15.1 26.05C16.92 26.7 17.24 25.3 17.3 24.92C17.3601 23.7851 17.0742 22.6588 16.48 21.69C16.46 21.38 16.45 21.58 16.35 21.45Z" fill="#F06351"/>
<path d="M14.71 22.59C14.2453 22.5247 13.7989 22.3651 13.3982 22.1209C12.9975 21.8767 12.651 21.5531 12.38 21.17C12.3667 21.157 12.3561 21.1414 12.3489 21.1242C12.3417 21.1071 12.338 21.0886 12.338 21.07C12.338 21.0514 12.3417 21.0329 12.3489 21.0158C12.3561 20.9986 12.3667 20.983 12.38 20.97C12.393 20.9567 12.4086 20.9461 12.4258 20.9389C12.4429 20.9317 12.4614 20.928 12.48 20.928C12.4986 20.928 12.5171 20.9317 12.5342 20.9389C12.5514 20.9461 12.567 20.9567 12.58 20.97C13.0848 21.6642 13.843 22.1313 14.69 22.27C15.0217 22.245 15.3426 22.1413 15.6261 21.9674C15.9096 21.7934 16.1475 21.5544 16.32 21.27L16.46 21.08L16.56 21.29C16.56 21.29 16.93 22.05 17.56 22.09C18.19 22.13 18.61 21.68 19.17 20.81C19.183 20.7967 19.1986 20.7861 19.2158 20.7789C19.2329 20.7717 19.2514 20.768 19.27 20.768C19.2886 20.768 19.3071 20.7717 19.3242 20.7789C19.3414 20.7861 19.357 20.7967 19.37 20.81C19.4023 20.8306 19.4255 20.8629 19.4348 20.9C19.4441 20.9372 19.4388 20.9766 19.42 21.01C18.78 22.01 18.15 22.45 17.54 22.41C17.308 22.3763 17.0867 22.2904 16.8927 22.1587C16.6987 22.0271 16.5371 21.8531 16.42 21.65C16.2233 21.9245 15.9676 22.1514 15.6717 22.3141C15.3758 22.4767 15.0471 22.571 14.71 22.59Z" fill="black"/>
<path d="M26.24 18.92C24.4445 20.5437 22.7512 22.277 21.17 24.11C19.5986 25.9361 17.8238 27.5768 15.88 29C15.66 28.47 14.26 27.49 14.26 27.49C14.26 27.49 11.13 25.35 9.08 23.67C7.97414 22.7373 6.9287 21.7353 5.95 20.67L3.95 20.56C6.84018 24.7655 11.0702 27.8676 15.95 29.36C16.81 29.22 19.22 27.5 21.02 26.1C23.1389 24.2819 25.124 22.3134 26.96 20.21C27.4625 19.621 27.8493 18.9425 28.1 18.21C27 18.6 26.24 18.92 26.24 18.92Z" fill="#F06351"/>
</g>
<g clip-path="url(#clip1_44334_308)">
<path d="M90.2645 30.3592C89.3696 29.0926 88.9253 27.5739 89 26.0367V19.6301C88.8916 18.0764 89.3081 16.5308 90.1855 15.2304C91.0548 14.227 92.3983 13.7639 94.374 13.7639C96.3498 13.7639 97.6143 14.227 98.4045 15.0761C99.2626 16.1515 99.6846 17.498 99.59 18.8583V20.402H95.7175V18.6267C95.7488 18.1016 95.6681 17.5759 95.4804 17.0829C95.3802 16.8839 95.2212 16.7188 95.024 16.6088C94.8269 16.4987 94.6005 16.4488 94.374 16.4654C93.8208 16.4654 93.4257 16.6198 93.2676 17.0058C93.0888 17.5542 93.0086 18.1287 93.0305 18.7039V26.963C92.9888 27.521 93.0978 28.08 93.3466 28.5839C93.5047 28.9699 93.8999 29.1242 94.4531 29.1242C95.0063 29.1242 95.3224 28.9699 95.4804 28.5839C95.6601 28.0623 95.7405 27.5129 95.7175 26.963V25.1105H99.59V26.6542C99.6704 28.0366 99.2508 29.4027 98.4045 30.5136C97.6143 31.4399 96.2707 31.903 94.374 31.903C92.4773 31.8258 91.0548 31.3627 90.2645 30.3592Z" fill="#111111"/>
<path d="M104.253 13.9957H108.757L112.077 31.5945H108.441L107.809 27.8895H105.201L104.569 31.5945H100.854L104.253 13.9957ZM107.493 25.5739L106.545 18.7042L105.596 25.5739H107.493Z" fill="#111111"/>
<path d="M114.843 16.9289H112.156V13.9957H121.56V16.8517H118.873V31.5945H114.843V16.9289Z" fill="#111111"/>
<path d="M128.752 13.9957H135.707V15.8482H131.202V21.6373H134.837V23.4126H131.202V29.8964H135.707V31.6717H128.673V13.9957H128.752Z" fill="#111111"/>
<path d="M137.761 13.9957H139.5L144.637 25.6511V13.9957H146.692V31.5945H145.111L139.895 19.5532V31.5945H137.761V13.9957Z" fill="#111111"/>
<path d="M149.063 13.9957H156.017V15.8482H151.513V21.6373H155.148V23.4126H151.513V29.8964H156.017V31.6717H149.063V13.9957Z" fill="#111111"/>
<path d="M158.072 13.9957H161.707C163.137 13.8992 164.559 14.2803 165.738 15.0763C166.607 15.771 167.002 17.006 167.002 18.627C167.002 20.8654 166.291 22.2548 164.79 22.7179L167.318 31.5173H164.869L162.498 23.2582H160.522V31.5173H157.993V13.9957H158.072ZM161.549 21.5601C162.364 21.6257 163.176 21.4069 163.841 20.9426C164.315 20.5567 164.552 19.7848 164.552 18.627C164.574 18.0518 164.494 17.4773 164.315 16.9288C164.137 16.5353 163.832 16.2098 163.446 16.0026C162.902 15.7603 162.304 15.6542 161.707 15.6938H160.601V21.4829H161.549V21.5601Z" fill="#111111"/>
<path d="M170.164 30.2815C169.342 28.9319 168.956 27.3717 169.057 25.8047V19.9384C169.038 18.8198 169.17 17.7037 169.452 16.6193C169.717 15.809 170.244 15.1046 170.954 14.6124C171.836 14.1023 172.854 13.8604 173.878 13.9177C175.538 13.9177 176.723 14.3037 177.434 15.1527C178.252 16.2739 178.644 17.639 178.541 19.0121V19.6296H176.17V19.0893C176.173 18.4429 176.12 17.7973 176.012 17.1596C175.945 16.7567 175.718 16.3959 175.379 16.1562C174.935 15.8714 174.408 15.7359 173.878 15.7702C173.311 15.7348 172.75 15.8991 172.297 16.2334C172.111 16.3864 171.959 16.5748 171.851 16.7872C171.742 16.9995 171.679 17.2313 171.665 17.4684C171.561 18.1584 171.508 18.8549 171.507 19.5524V26.1134C171.449 27.113 171.61 28.1131 171.981 29.0465C172.297 29.664 172.93 29.8956 173.878 29.8956C174.252 29.9412 174.632 29.8776 174.97 29.7127C175.307 29.5479 175.587 29.2893 175.775 28.9694C176.192 27.9933 176.381 26.9384 176.328 25.8818V24.6468H174.036V22.8715H178.62V31.5937H177.039L176.802 29.5869C176.595 30.2594 176.163 30.8451 175.576 31.2507C174.989 31.6563 174.28 31.8585 173.562 31.8253C172.909 31.8628 172.256 31.7414 171.663 31.472C171.07 31.2025 170.555 30.7935 170.164 30.2815Z" fill="#111111"/>
<path d="M183.678 25.4192L179.805 14.0726H182.176L184.942 22.5633L187.629 14.0726H190L186.128 25.4192V31.5942H183.757V25.4192H183.678Z" fill="#111111"/>
</g>
<defs>
<clipPath id="clip0_44334_308">
<rect width="33.32" height="37.61" fill="white"/>
</clipPath>
<clipPath id="clip1_44334_308">
<rect width="101" height="18.0619" fill="white" transform="translate(89 13.7639)"/>
</clipPath>
</defs>
</svg>

<svg width="190" height="38" fill="none" xmlns="http://www.w3.org/2000/svg"><g clip-path="url(#a)"><path d="M6.07 20.72v-2.26a143.265 143.265 0 0 1 20.17-1.33c0 .6 0 1.21-.06 1.82a25.518 25.518 0 0 1 6-1.82A16.67 16.67 0 0 0 .19 20.39l5.88.33ZM27.24 24.23c-1.16 1.28-1.39 1.2-1.39 3.45v9.18A16.64 16.64 0 0 0 33.32 23a17.302 17.302 0 0 0-.32-3.1 33.109 33.109 0 0 0-5.76 4.33ZM6.36 25.72s-3.79-1.44-5.19-1.83A8.541 8.541 0 0 0 0 23.61a16.65 16.65 0 0 0 8.68 14L6.36 25.72Z" fill="#FDC305"/><path d="M26.29 17.12A89.799 89.799 0 0 0 24.89.65S24.75-.64 24 .41a14.22 14.22 0 0 0-1.2 3.94 70.34 70.34 0 0 0-12.77.34C9.24 2 7.85.75 7.18 1c-.67.25-.72 3.31-.72 3.31l-.33 14.1a143.211 143.211 0 0 1 20.16-1.29Z" fill="#F06351"/><path d="M12.41 14c0-.09 1 .68 1.41.92.41.24.61.42.61.59 0 .17-.27.34-.63.34s-.91-.12-1-.27h1.23A8.34 8.34 0 0 1 12.41 14ZM19.89 14.11l-1.09 1.33c0 .06-.17.35.18.3a7.351 7.351 0 0 0 1.22-.29c.11 0 .07-.19-.11-.17-.18.02-.69.05-1 .11l.84-1.26s.07-.13-.04-.02ZM16.75 20.2a2.3 2.3 0 0 0 1.09-1c.28-.65 0-.91-.44-1a2.43 2.43 0 0 0-1.74.34c-.39.36-.34.72-.05 1a5.34 5.34 0 0 0 1.14.66Z" fill="#000"/><path d="M16.35 21.45a1.92 1.92 0 0 1-.46.6 1.73 1.73 0 0 1-1 .38 2.15 2.15 0 0 1-1.47-.43 2.3 2.3 0 0 1-.53-.44c-.1-.11-.223-.2-.36-.26 0 0 .75 4.1 2.57 4.75 1.82.65 2.14-.75 2.2-1.13a5.61 5.61 0 0 0-.82-3.23c-.02-.31-.03-.11-.13-.24Z" fill="#F06351"/><path d="M14.71 22.59a3.44 3.44 0 0 1-2.361-1.466.14.14 0 0 1 .031-.154.14.14 0 0 1 .2 0 3.26 3.26 0 0 0 2.11 1.3 2.09 2.09 0 0 0 1.63-1l.14-.19.1.21s.37.76 1 .8c.63.04 1.05-.41 1.61-1.28a.14.14 0 0 1 .2 0 .15.15 0 0 1 .05.2c-.64 1-1.27 1.44-1.88 1.4a1.549 1.549 0 0 1-1.12-.76 2.26 2.26 0 0 1-1.71.94Z" fill="#000"/><path d="M26.24 18.92a58.634 58.634 0 0 0-5.07 5.19A31.633 31.633 0 0 1 15.88 29c-.22-.53-1.62-1.51-1.62-1.51s-3.13-2.14-5.18-3.82a34.139 34.139 0 0 1-3.13-3l-2-.11a22.57 22.57 0 0 0 12 8.8c.86-.14 3.27-1.86 5.07-3.26a58.13 58.13 0 0 0 5.94-5.89 6.15 6.15 0 0 0 1.14-2c-1.1.39-1.86.71-1.86.71Z" fill="#F06351"/></g><g clip-path="url(#b)" fill="#111"><path d="M90.264 30.36A6.906 6.906 0 0 1 89 26.036V19.63a6.991 6.991 0 0 1 1.186-4.4c.869-1.003 2.212-1.466 4.188-1.466 1.976 0 3.24.463 4.03 1.312a5.453 5.453 0 0 1 1.186 3.782v1.544h-3.873v-1.775a3.715 3.715 0 0 0-.237-1.544c-.1-.2-.259-.364-.456-.474a1.16 1.16 0 0 0-.65-.144c-.553 0-.948.155-1.106.54a4.878 4.878 0 0 0-.237 1.699v8.259a3.132 3.132 0 0 0 .316 1.62c.158.387.553.541 1.106.541s.87-.154 1.027-.54a4.41 4.41 0 0 0 .237-1.621V25.11h3.873v1.544a5.808 5.808 0 0 1-1.186 3.86c-.79.926-2.133 1.389-4.03 1.389-1.897-.077-3.32-.54-4.11-1.544ZM104.253 13.996h4.504l3.32 17.599h-3.636l-.632-3.705h-2.608l-.632 3.704h-3.715l3.399-17.598Zm3.24 11.578-.948-6.87-.949 6.87h1.897ZM114.843 16.929h-2.687v-2.933h9.404v2.856h-2.687v14.742h-4.03V16.93ZM128.752 13.996h6.955v1.852h-4.505v5.79h3.635v1.775h-3.635v6.483h4.505v1.776h-7.034V13.996h.079ZM137.761 13.996h1.739l5.137 11.655V13.996h2.055v17.599h-1.581l-5.216-12.042v12.041h-2.134V13.997ZM149.063 13.996h6.954v1.852h-4.504v5.79h3.635v1.775h-3.635v6.483h4.504v1.776h-6.954V13.996ZM158.072 13.996h3.635a6.436 6.436 0 0 1 4.031 1.08c.869.695 1.264 1.93 1.264 3.551 0 2.238-.711 3.628-2.212 4.09l2.528 8.8h-2.449l-2.371-8.259h-1.976v8.26h-2.529V13.995h.079Zm3.477 7.564a3.514 3.514 0 0 0 2.292-.617c.474-.386.711-1.158.711-2.316a4.871 4.871 0 0 0-.237-1.698 1.978 1.978 0 0 0-.869-.926 3.68 3.68 0 0 0-1.739-.31h-1.106v5.79h.948v.077ZM170.164 30.282a7.654 7.654 0 0 1-1.107-4.477v-5.867a12.35 12.35 0 0 1 .395-3.319 3.933 3.933 0 0 1 1.502-2.007c.882-.51 1.9-.752 2.924-.694 1.66 0 2.845.386 3.556 1.235a5.807 5.807 0 0 1 1.107 3.86v.617h-2.371v-.54c.003-.647-.05-1.293-.158-1.93a1.539 1.539 0 0 0-.633-1.004 2.485 2.485 0 0 0-1.501-.386 2.411 2.411 0 0 0-1.581.463 1.738 1.738 0 0 0-.632 1.235c-.104.69-.157 1.387-.158 2.084v6.561c-.058 1 .103 2 .474 2.934.316.617.949.849 1.897.849.374.045.754-.018 1.092-.183.337-.165.617-.424.805-.744a6.968 6.968 0 0 0 .553-3.087v-1.235h-2.292v-1.775h4.584v8.722h-1.581l-.237-2.007a3.154 3.154 0 0 1-1.226 1.664 3.279 3.279 0 0 1-2.014.574 4.036 4.036 0 0 1-1.899-.353 3.93 3.93 0 0 1-1.499-1.19ZM183.678 25.42l-3.873-11.347h2.371l2.766 8.49 2.687-8.49H190l-3.872 11.346v6.175h-2.371V25.42h-.079Z"/></g><defs><clipPath id="a"><path fill="#fff" d="M0 0h33.32v37.61H0z"/></clipPath><clipPath id="b"><path fill="#fff" transform="translate(89 13.764)" d="M0 0h101v18.062H0z"/></clipPath></defs></svg>
